src/assets/senuto.svg

<svg width="73" height="14" viewBox="0 0 73 14" fill="none" xmlns="http://www.w3.org/2000/svg">
<path d="M2.44103 12.5864C1.85376 12.3481 1.3431 11.9502 0.96648 11.4395C0.600503 10.9225 0.404748 10.3054 0.409003 9.67136H2.79849C2.80913 10.082 2.98361 10.4735 3.28362 10.7544C3.61981 11.0353 4.04962 11.18 4.48581 11.1544C4.92626 11.1778 5.36033 11.0438 5.70928 10.7757C6.00079 10.5352 6.16463 10.1735 6.15399 9.79477C6.16463 9.49475 6.05611 9.20325 5.85184 8.98409C5.63907 8.7628 5.37948 8.59258 5.09436 8.48194C4.68583 8.32448 4.26878 8.19043 3.84536 8.07553C3.24532 7.90531 2.65593 7.6904 2.08569 7.4372C1.63034 7.23081 1.23458 6.91589 0.92818 6.52013C0.581353 6.03074 0.409003 5.43922 0.44092 4.83919C0.426026 4.22852 0.598375 3.62636 0.934563 3.11569C1.27713 2.61567 1.76014 2.22416 2.31974 1.99223C2.96446 1.722 3.65811 1.59008 4.35815 1.60285C5.50502 1.60285 6.43698 1.88159 7.15404 2.43906C7.87748 3.00505 8.31155 3.86254 8.34134 4.77961H5.88802C5.87099 4.40938 5.69439 4.06255 5.40288 3.83275C5.05819 3.57104 4.63263 3.43699 4.20069 3.45827C3.82408 3.43486 3.45385 3.54976 3.15596 3.77956C2.88573 4.02851 2.74317 4.38597 2.76658 4.75195C2.75806 5.02856 2.86445 5.29666 3.06021 5.49242C3.27086 5.69881 3.51981 5.86052 3.79429 5.96904C4.19857 6.13287 4.60923 6.27331 5.0284 6.39459C5.63268 6.56481 6.2242 6.77759 6.79658 7.03292C7.26043 7.25208 7.66258 7.57976 7.97323 7.98829C8.32432 8.4713 8.50092 9.06069 8.47539 9.65647C8.47964 10.2416 8.32006 10.814 8.01366 11.3119C7.68811 11.8396 7.22 12.263 6.6604 12.5311C5.99653 12.8503 5.26883 13.0056 4.53263 12.9843C3.81557 12.9949 3.10276 12.8609 2.44103 12.5864Z" fill="white"/>
<path d="M14.1268 3.54125V6.32863H17.8695V8.09681H14.1268V11.0416H18.3482V12.8566H11.899V1.72626H18.3482V3.54125H14.1268Z" fill="white"/>
<path d="M41.6112 1.67732V8.55853C41.6112 9.31177 41.8069 9.88839 42.1984 10.2863C42.59 10.6842 43.1432 10.8842 43.856 10.8821C44.5773 10.8821 45.1348 10.6842 45.5284 10.2863C45.9199 9.88839 46.1178 9.31177 46.1178 8.55853V1.67732H48.3626V8.54151C48.3903 9.38198 48.1775 10.2139 47.7498 10.9374C47.3562 11.5778 46.7859 12.0885 46.1093 12.4119C45.3944 12.7481 44.6135 12.9141 43.8241 12.9034C43.0453 12.9141 42.2729 12.746 41.5708 12.4098C40.9026 12.0885 40.343 11.5757 39.9664 10.9374C39.5536 10.2076 39.3494 9.37986 39.377 8.54151V1.67732H41.6112Z" fill="white"/>
<path d="M59.2398 1.73264V3.54125H56.2779V12.8588H54.048V3.54125H51.0862V1.73264H59.2398Z" fill="white"/>
<path d="M66.9678 1.59859C63.6357 1.59859 60.9335 4.15192 60.9335 7.29251C60.9335 10.4331 63.6357 12.9843 66.9678 12.9843C70.2999 12.9843 73.0001 10.431 73.0001 7.29251C73.0001 4.15405 70.2999 1.59859 66.9678 1.59859ZM66.9678 10.9948C64.9273 10.9714 63.2911 9.29687 63.3145 7.25634C63.3379 5.21581 65.0124 3.57955 67.0529 3.60295C69.0765 3.62636 70.7063 5.27325 70.7063 7.29889C70.6893 9.34794 69.0169 10.9991 66.9678 10.9885V10.9948Z" fill="white"/>
<path d="M34.2725 0.221924L32.583 9.7969C32.532 10.0863 32.2554 10.2778 31.966 10.2267C31.8213 10.2012 31.6936 10.1161 31.6128 9.99265L27.3572 3.41571C26.5572 2.1816 24.906 1.83052 23.6719 2.63056C23.0528 3.03271 22.6272 3.67317 22.4995 4.40087L20.9122 13.4077L23.0102 13.778L24.5975 4.7711C24.6507 4.48172 24.9273 4.2881 25.2188 4.33916C25.3635 4.3647 25.4912 4.44981 25.5699 4.57322L29.8255 11.1502C30.3127 11.9076 31.1511 12.3672 32.0532 12.3672C32.2341 12.3672 32.4128 12.3481 32.5894 12.3119C33.664 12.0991 34.498 11.2459 34.6832 10.165L36.3726 0.590028L34.2725 0.221924Z" fill="white"/>
</svg>

<svg width="73" height="14" viewBox="0 0 73 14" fill="none" xmlns="http://www.w3.org/2000/svg"><path d="M2.441 12.586A3.44 3.44 0 0 1 .966 11.44 3.02 3.02 0 0 1 .41 9.67H2.8c.01.411.185.803.485 1.083.336.281.766.426 1.202.4.44.024.874-.11 1.223-.378.292-.24.456-.602.445-.981a1.13 1.13 0 0 0-.302-.81 2.1 2.1 0 0 0-.758-.503 13 13 0 0 0-1.249-.406c-.6-.17-1.19-.386-1.76-.639A3.06 3.06 0 0 1 .929 6.52a2.66 2.66 0 0 1-.487-1.68 3 3 0 0 1 .494-1.724c.342-.5.825-.892 1.385-1.124a5 5 0 0 1 2.038-.39q1.72 0 2.796.837a3.1 3.1 0 0 1 1.187 2.34H5.888a1.28 1.28 0 0 0-.485-.946A1.84 1.84 0 0 0 4.2 3.458a1.55 1.55 0 0 0-1.045.322c-.27.249-.413.606-.39.972-.008.277.098.545.294.74.21.207.46.369.734.477q.606.244 1.234.426.908.255 1.769.638c.463.22.866.547 1.176.955.351.483.528 1.073.502 1.668a3.1 3.1 0 0 1-.461 1.656 3.23 3.23 0 0 1-1.354 1.22 4.6 4.6 0 0 1-2.127.452 5.3 5.3 0 0 1-2.092-.398m11.687-9.045V6.33h3.742v1.768h-3.742v2.945h4.221v1.815H11.9V1.727h6.45V3.54zm27.484-1.864V8.56q0 1.13.587 1.727.588.598 1.658.596 1.082 0 1.672-.596.589-.597.59-1.727V1.677h2.245v6.865a4.4 4.4 0 0 1-.613 2.395 3.9 3.9 0 0 1-1.64 1.475 5.2 5.2 0 0 1-2.286.491 5.06 5.06 0 0 1-2.253-.493 3.75 3.75 0 0 1-1.605-1.473 4.56 4.56 0 0 1-.589-2.395V1.677zm17.629.056V3.54h-2.962v9.318h-2.23V3.54h-2.962V1.733zm7.728-.134c-3.332 0-6.035 2.553-6.035 5.694s2.703 5.691 6.035 5.691S73 10.431 73 7.293s-2.7-5.694-6.032-5.694m0 9.396a3.697 3.697 0 1 1 3.738-3.696 3.72 3.72 0 0 1-3.738 3.69zM34.273.222l-1.69 9.575a.531.531 0 0 1-.97.196l-4.256-6.577A2.665 2.665 0 0 0 22.5 4.4l-1.588 9.007 2.098.37 1.587-9.007a.537.537 0 0 1 .622-.432c.144.026.272.11.35.234l4.257 6.577a2.65 2.65 0 0 0 2.763 1.162 2.645 2.645 0 0 0 2.094-2.147L36.373.59z" fill="#fff"/></svg>
